flaticon/essential/switch-4.svg

<svg xmlns="http://www.w3.org/2000/svg" width="32" height="32" viewBox="0 0 24 24">
    <path d="M 20.988281 0 L 3.011719 0 C 1.351562 0 0 1.351562 0 3.011719 L 0 20.988281 C 0 22.648438 1.351562 24 3.011719 24 L 20.988281 24 C 22.648438 24 24 22.648438 24 20.988281 L 24 3.011719 C 24 1.351562 22.648438 0 20.988281 0 Z M 23.199219 20.988281 C 23.199219 22.207031 22.207031 23.199219 20.988281 23.199219 L 3.011719 23.199219 C 1.792969 23.199219 0.800781 22.207031 0.800781 20.988281 L 0.800781 3.011719 C 0.800781 1.792969 1.792969 0.800781 3.011719 0.800781 L 20.988281 0.800781 C 22.207031 0.800781 23.199219 1.792969 23.199219 3.011719 Z M 23.199219 20.988281"/>
    <path d="M17.601562 2.398438L6.398438 2.398438C3.972656 2.398438 2 4.375 2 6.800781 2 9.226562 3.972656 11.199219 6.398438 11.199219L17.601562 11.199219C20.027344 11.199219 22 9.226562 22 6.800781 22 4.375 20.027344 2.398438 17.601562 2.398438zM6.398438 10.398438C4.414062 10.398438 2.800781 8.785156 2.800781 6.800781 2.800781 4.816406 4.414062 3.199219 6.398438 3.199219L15.078125 3.199219C13.945312 3.996094 13.199219 5.3125 13.199219 6.800781 13.199219 8.289062 13.945312 9.601562 15.078125 10.398438zM17.601562 10.398438C15.613281 10.398438 14 8.785156 14 6.800781 14 4.816406 15.613281 3.199219 17.601562 3.199219 19.585938 3.199219 21.199219 4.816406 21.199219 6.800781 21.199219 8.785156 19.585938 10.398438 17.601562 10.398438zM17.601562 12.800781L6.398438 12.800781C3.972656 12.800781 2 14.773438 2 17.199219 2 19.625 3.972656 21.601562 6.398438 21.601562L17.601562 21.601562C20.027344 21.601562 22 19.625 22 17.199219 22 14.773438 20.027344 12.800781 17.601562 12.800781zM2.800781 17.199219C2.800781 15.214844 4.414062 13.601562 6.398438 13.601562 8.386719 13.601562 10 15.214844 10 17.199219 10 19.183594 8.386719 20.800781 6.398438 20.800781 4.414062 20.800781 2.800781 19.183594 2.800781 17.199219zM20.972656 15.957031C21.117188 16.34375 21.199219 16.761719 21.199219 17.199219 21.199219 17.40625 21.179688 17.609375 21.144531 17.808594 21.074219 17.6875 20.949219 17.601562 20.800781 17.601562 20.578125 17.601562 20.398438 17.777344 20.398438 18 20.398438 18.222656 20.578125 18.398438 20.800781 18.398438 20.882812 18.398438 20.953125 18.371094 21.015625 18.328125 20.660156 19.40625 19.804688 20.257812 18.726562 20.617188 18.769531 20.554688 18.800781 20.480469 18.800781 20.398438 18.800781 20.179688 18.621094 20 18.398438 20 18.179688 20 18 20.179688 18 20.398438 18 20.550781 18.085938 20.675781 18.207031 20.746094 18.011719 20.777344 17.808594 20.800781 17.601562 20.800781L8.921875 20.800781C10.054688 20.003906 10.800781 18.6875 10.800781 17.199219 10.800781 16.308594 10.53125 15.480469 10.074219 14.785156 10.257812 14.75 10.398438 14.59375 10.398438 14.398438 10.398438 14.179688 10.222656 14 10 14 9.839844 14 9.703125 14.097656 9.640625 14.234375 9.421875 13.996094 9.183594 13.785156 8.921875 13.601562L17.601562 13.601562C18.246094 13.601562 18.855469 13.773438 19.378906 14.074219 19.273438 14.148438 19.199219 14.261719 19.199219 14.398438 19.199219 14.621094 19.378906 14.800781 19.601562 14.800781 19.785156 14.800781 19.933594 14.671875 19.980469 14.503906 20.226562 14.722656 20.441406 14.972656 20.621094 15.246094 20.492188 15.3125 20.398438 15.445312 20.398438 15.601562 20.398438 15.820312 20.578125 16 20.800781 16 20.863281 16 20.921875 15.980469 20.972656 15.957031zM20.972656 15.957031"/>
    <path d="M11.601562 15.601562C11.601562 15.820312 11.421875 16 11.199219 16 10.980469 16 10.800781 15.820312 10.800781 15.601562 10.800781 15.378906 10.980469 15.199219 11.199219 15.199219 11.421875 15.199219 11.601562 15.378906 11.601562 15.601562zM12.800781 14.398438C12.800781 14.621094 12.621094 14.800781 12.398438 14.800781 12.179688 14.800781 12 14.621094 12 14.398438 12 14.179688 12.179688 14 12.398438 14 12.621094 14 12.800781 14.179688 12.800781 14.398438zM15.199219 14.398438C15.199219 14.621094 15.019531 14.800781 14.800781 14.800781 14.578125 14.800781 14.398438 14.621094 14.398438 14.398438 14.398438 14.179688 14.578125 14 14.800781 14 15.019531 14 15.199219 14.179688 15.199219 14.398438zM14 15.601562C14 15.820312 13.820312 16 13.601562 16 13.378906 16 13.199219 15.820312 13.199219 15.601562 13.199219 15.378906 13.378906 15.199219 13.601562 15.199219 13.820312 15.199219 14 15.378906 14 15.601562zM16.398438 15.601562C16.398438 15.820312 16.222656 16 16 16 15.777344 16 15.601562 15.820312 15.601562 15.601562 15.601562 15.378906 15.777344 15.199219 16 15.199219 16.222656 15.199219 16.398438 15.378906 16.398438 15.601562zM17.601562 14.398438C17.601562 14.621094 17.421875 14.800781 17.199219 14.800781 16.980469 14.800781 16.800781 14.621094 16.800781 14.398438 16.800781 14.179688 16.980469 14 17.199219 14 17.421875 14 17.601562 14.179688 17.601562 14.398438zM18.800781 15.601562C18.800781 15.820312 18.621094 16 18.398438 16 18.179688 16 18 15.820312 18 15.601562 18 15.378906 18.179688 15.199219 18.398438 15.199219 18.621094 15.199219 18.800781 15.378906 18.800781 15.601562zM11.601562 18C11.601562 18.222656 11.421875 18.398438 11.199219 18.398438 10.980469 18.398438 10.800781 18.222656 10.800781 18 10.800781 17.777344 10.980469 17.601562 11.199219 17.601562 11.421875 17.601562 11.601562 17.777344 11.601562 18zM11.601562 20.398438C11.601562 20.621094 11.421875 20.800781 11.199219 20.800781 10.980469 20.800781 10.800781 20.621094 10.800781 20.398438 10.800781 20.179688 10.980469 20 11.199219 20 11.421875 20 11.601562 20.179688 11.601562 20.398438zM12.800781 16.800781C12.800781 17.019531 12.621094 17.199219 12.398438 17.199219 12.179688 17.199219 12 17.019531 12 16.800781 12 16.578125 12.179688 16.398438 12.398438 16.398438 12.621094 16.398438 12.800781 16.578125 12.800781 16.800781zM15.199219 16.800781C15.199219 17.019531 15.019531 17.199219 14.800781 17.199219 14.578125 17.199219 14.398438 17.019531 14.398438 16.800781 14.398438 16.578125 14.578125 16.398438 14.800781 16.398438 15.019531 16.398438 15.199219 16.578125 15.199219 16.800781zM12.800781 19.199219C12.800781 19.421875 12.621094 19.601562 12.398438 19.601562 12.179688 19.601562 12 19.421875 12 19.199219 12 18.980469 12.179688 18.800781 12.398438 18.800781 12.621094 18.800781 12.800781 18.980469 12.800781 19.199219zM15.199219 19.199219C15.199219 19.421875 15.019531 19.601562 14.800781 19.601562 14.578125 19.601562 14.398438 19.421875 14.398438 19.199219 14.398438 18.980469 14.578125 18.800781 14.800781 18.800781 15.019531 18.800781 15.199219 18.980469 15.199219 19.199219zM14 18C14 18.222656 13.820312 18.398438 13.601562 18.398438 13.378906 18.398438 13.199219 18.222656 13.199219 18 13.199219 17.777344 13.378906 17.601562 13.601562 17.601562 13.820312 17.601562 14 17.777344 14 18zM16.398438 18C16.398438 18.222656 16.222656 18.398438 16 18.398438 15.777344 18.398438 15.601562 18.222656 15.601562 18 15.601562 17.777344 15.777344 17.601562 16 17.601562 16.222656 17.601562 16.398438 17.777344 16.398438 18zM14 20.398438C14 20.621094 13.820312 20.800781 13.601562 20.800781 13.378906 20.800781 13.199219 20.621094 13.199219 20.398438 13.199219 20.179688 13.378906 20 13.601562 20 13.820312 20 14 20.179688 14 20.398438zM16.398438 20.398438C16.398438 20.621094 16.222656 20.800781 16 20.800781 15.777344 20.800781 15.601562 20.621094 15.601562 20.398438 15.601562 20.179688 15.777344 20 16 20 16.222656 20 16.398438 20.179688 16.398438 20.398438zM17.601562 16.800781C17.601562 17.019531 17.421875 17.199219 17.199219 17.199219 16.980469 17.199219 16.800781 17.019531 16.800781 16.800781 16.800781 16.578125 16.980469 16.398438 17.199219 16.398438 17.421875 16.398438 17.601562 16.578125 17.601562 16.800781zM20 16.800781C20 17.019531 19.820312 17.199219 19.601562 17.199219 19.378906 17.199219 19.199219 17.019531 19.199219 16.800781 19.199219 16.578125 19.378906 16.398438 19.601562 16.398438 19.820312 16.398438 20 16.578125 20 16.800781zM17.601562 19.199219C17.601562 19.421875 17.421875 19.601562 17.199219 19.601562 16.980469 19.601562 16.800781 19.421875 16.800781 19.199219 16.800781 18.980469 16.980469 18.800781 17.199219 18.800781 17.421875 18.800781 17.601562 18.980469 17.601562 19.199219zM20 19.199219C20 19.421875 19.820312 19.601562 19.601562 19.601562 19.378906 19.601562 19.199219 19.421875 19.199219 19.199219 19.199219 18.980469 19.378906 18.800781 19.601562 18.800781 19.820312 18.800781 20 18.980469 20 19.199219zM18.800781 18C18.800781 18.222656 18.621094 18.398438 18.398438 18.398438 18.179688 18.398438 18 18.222656 18 18 18 17.777344 18.179688 17.601562 18.398438 17.601562 18.621094 17.601562 18.800781 17.777344 18.800781 18zM18.800781 18"/>
</svg>

<svg xmlns="http://www.w3.org/2000/svg" width="32" height="32" viewBox="0 0 24 24">
    <path d="M20.988 0H3.012A3.016 3.016 0 0 0 0 3.012v17.976A3.016 3.016 0 0 0 3.012 24h17.976A3.016 3.016 0 0 0 24 20.988V3.012A3.016 3.016 0 0 0 20.988 0zM23.2 20.988c0 1.219-.992 2.211-2.21 2.211H3.011A2.214 2.214 0 0 1 .8 20.99V3.011C.8 1.793 1.793.8 3.01.8h17.977c1.219 0 2.211.992 2.211 2.21zm0 0"/>
    <path d="M17.602 2.398H6.398A4.406 4.406 0 0 0 2 6.801a4.403 4.403 0 0 0 4.398 4.398h11.204A4.403 4.403 0 0 0 22 6.801a4.406 4.406 0 0 0-4.398-4.403zm-11.204 8a3.6 3.6 0 0 1-3.597-3.597 3.604 3.604 0 0 1 3.597-3.602h8.68A4.401 4.401 0 0 0 13.2 6.801c0 1.488.746 2.8 1.88 3.597zm11.204 0A3.602 3.602 0 0 1 14 6.801a3.605 3.605 0 0 1 3.602-3.602 3.604 3.604 0 0 1 3.597 3.602 3.6 3.6 0 0 1-3.597 3.597zm0 0M17.602 12.8H6.398A4.403 4.403 0 0 0 2 17.2a4.406 4.406 0 0 0 4.398 4.402h11.204A4.406 4.406 0 0 0 22 17.199a4.403 4.403 0 0 0-4.398-4.398zM2.8 17.2a3.6 3.6 0 0 1 3.597-3.598A3.602 3.602 0 0 1 10 17.199a3.605 3.605 0 0 1-3.602 3.602 3.604 3.604 0 0 1-3.597-3.602zm18.172-1.243a3.5 3.5 0 0 1 .172 1.852.4.4 0 0 0-.344-.207.398.398 0 1 0 0 .796.372.372 0 0 0 .215-.07 3.618 3.618 0 0 1-2.29 2.29.387.387 0 0 0 .075-.22.401.401 0 0 0-.801 0c0 .153.086.278.207.348a3.834 3.834 0 0 1-.605.055h-8.68a4.401 4.401 0 0 0 1.879-3.602c0-.89-.27-1.719-.727-2.414a.394.394 0 0 0 .324-.387.397.397 0 1 0-.758-.164 4.415 4.415 0 0 0-.718-.632h8.68c.644 0 1.253.171 1.777.472a.397.397 0 0 0-.18.324c0 .223.18.403.403.403a.397.397 0 0 0 .378-.297c.247.219.461.469.641.742a.403.403 0 0 0-.223.356c0 .218.18.398.403.398.062 0 .12-.02.172-.043zm0 0"/>
    <path d="M11.602 15.602a.401.401 0 1 1-.802-.005.401.401 0 0 1 .802.005zm0 0M12.8 14.398a.401.401 0 1 1 0 0zm0 0M15.2 14.398a.401.401 0 1 1-.803.003.401.401 0 0 1 .802-.003zm0 0M14 15.602a.4.4 0 1 1-.8-.004.4.4 0 0 1 .8.004zm0 0M16.398 15.602a.398.398 0 1 1-.796 0 .398.398 0 1 1 .796 0zm0 0M17.602 14.398a.401.401 0 1 1 0 0zm0 0M18.8 15.602a.401.401 0 1 1-.801-.005.401.401 0 0 1 .802.005zm0 0M11.602 18c0 .223-.18.398-.403.398a.398.398 0 1 1 0-.796c.223 0 .403.175.403.398zm0 0M11.602 20.398a.401.401 0 1 1 0 0zm0 0M12.8 16.8a.401.401 0 1 1-.801-.004.401.401 0 0 1 .802.005zm0 0M15.2 16.8a.4.4 0 1 1-.801-.003.4.4 0 0 1 .8.004zm0 0M12.8 19.2a.401.401 0 1 1 0 0zm0 0M15.2 19.2a.401.401 0 1 1-.803.002.401.401 0 0 1 .802-.003zm0 0M14 18c0 .223-.18.398-.398.398a.398.398 0 1 1 0-.796c.218 0 .398.175.398.398zm0 0M16.398 18a.395.395 0 0 1-.398.398.395.395 0 0 1-.398-.398c0-.223.175-.398.398-.398.223 0 .398.175.398.398zm0 0M14 20.398a.401.401 0 1 1-.802.003.401.401 0 0 1 .802-.003zm0 0M16.398 20.398a.398.398 0 1 1-.796 0 .398.398 0 1 1 .796 0zm0 0M17.602 16.8a.401.401 0 1 1-.802-.004.401.401 0 0 1 .802.005zm0 0M20 16.8a.4.4 0 1 1-.8-.003.4.4 0 0 1 .8.004zm0 0M17.602 19.2a.401.401 0 1 1 0 0zm0 0M20 19.2a.401.401 0 1 1-.802.002.401.401 0 0 1 .802-.003zm0 0M18.8 18c0 .223-.179.398-.402.398a.398.398 0 1 1 0-.796c.223 0 .403.175.403.398zm0 0"/>
</svg>
